img/Install_Node.svg

<?xml version="1.0" encoding="UTF-8"?>
<svg width="40px" height="40px" viewBox="0 0 40 40" version="1.1" xmlns="http://www.w3.org/2000/svg" xmlns:xlink="http://www.w3.org/1999/xlink">
    <!-- Generator: Sketch 61.2 (89653) - https://sketch.com -->
    <title>1.安装节点</title>
    <desc>Created with Sketch.</desc>
    <g id="1.安装节点" stroke="none" stroke-width="1" fill="none" fill-rule="evenodd">
        <g id="创建" fill-rule="nonzero">
            <path d="M29.0909091,29.0909091 L29.0909091,23.6363636 C29.0910563,22.6323136 29.9050409,21.8184483 30.9090909,21.8184483 C31.9131409,21.8184483 32.7271256,22.6323136 32.7272727,23.6363636 L32.7272727,29.0909091 L38.1818182,29.0909091 C39.1858682,29.0910563 39.9997335,29.9050409 39.9997335,30.9090909 C39.9997335,31.9131409 39.1858682,32.7271256 38.1818182,32.7272727 L32.7272727,32.7272727 L32.7272727,38.1818182 C32.7271256,39.1858682 31.9131409,39.9997335 30.9090909,39.9997335 C29.9050409,39.9997335 29.0910563,39.1858682 29.0909091,38.1818182 L29.0909091,32.7272727 L23.6363636,32.7272727 C22.6323136,32.7271256 21.8184483,31.9131409 21.8184483,30.9090909 C21.8184483,29.9050409 22.6323136,29.0910563 23.6363636,29.0909091 L29.0909091,29.0909091 Z M40,23.6363636 C40,24.6404136 39.1858682,25.454279 38.1818182,25.454279 C37.1777682,25.454279 36.3637835,24.6404136 36.3636364,23.6363636 L36.3636364,7.27272727 C36.3636364,5.26441909 34.7355809,3.63636363 32.7272727,3.63636363 L14.5454545,3.63636363 C8.52052999,3.63636363 3.63636363,8.52052999 3.63636363,14.5454545 L3.63636363,32.7272727 C3.63636363,34.7355809 5.26441909,36.3636364 7.27272727,36.3636364 L23.6363636,36.3636364 C24.6404136,36.3637835 25.454279,37.1777682 25.454279,38.1818182 C25.454279,39.1858682 24.6404136,40 23.6363636,40 L7.27272727,40 C3.25611091,40 0,36.7438891 0,32.7272727 L0,14.5454545 C0,6.51222181 6.51222181,0 14.5454545,0 L32.7272727,0 C36.7438891,0 40,3.25611091 40,7.27272727 L40,23.6363636 Z" id="形状" fill="#E40065"></path>
            <path d="M14.5454545,0 L18.1818182,0 L18.1818182,10.9090909 C18.1818182,14.9257073 14.9257073,18.1818182 10.9090909,18.1818182 L0,18.1818182 L0,14.5454545 C0,6.51222181 6.51222181,0 14.5454545,0 Z M14.5454545,3.63636363 C8.52052999,3.63636363 3.63636363,8.52052999 3.63636363,14.5454545 L10.9090909,14.5454545 C11.8735145,14.5454545 12.7984378,14.1623387 13.4803883,13.4803883 C14.1623387,12.7984378 14.5454545,11.8735145 14.5454545,10.9090909 L14.5454545,3.63636363 Z" id="形状" fill="#FFB7D7"></path>
        </g>
    </g>
</svg>

<svg width="40" height="40" viewBox="0 0 40 40" xmlns="http://www.w3.org/2000/svg"><g fill="none"><path d="M29.09 29.09v-5.454a1.818 1.818 0 013.637 0v5.455h5.455a1.818 1.818 0 010 3.636h-5.455v5.455a1.818 1.818 0 01-3.636 0v-5.455h-5.455a1.818 1.818 0 010-3.636h5.455zM40 23.637a1.818 1.818 0 01-3.636 0V7.273a3.636 3.636 0 00-3.637-3.637H14.545c-6.024 0-10.909 4.885-10.909 10.91v18.181a3.636 3.636 0 003.637 3.637h16.363a1.818 1.818 0 010 3.636H7.273A7.273 7.273 0 010 32.727V14.545C0 6.512 6.512 0 14.545 0h18.182A7.273 7.273 0 0140 7.273v16.363z" fill="#E40065"/><path d="M14.545 0h3.637v10.91a7.273 7.273 0 01-7.273 7.272H0v-3.637C0 6.512 6.512 0 14.545 0zm0 3.636c-6.024 0-10.909 4.885-10.909 10.91h7.273a3.636 3.636 0 003.636-3.637V3.636z" fill="#FFB7D7"/></g></svg>
